SVG/24px/trash.svg

<svg xmlns="http://www.w3.org/2000/svg" viewBox="0 0 24 24"><rect x="0" fill="none" width="24" height="24"/><g><path d="M18 21H6c-1.105 0-2-0.895-2-2V9h2v10h12V9h2v10C20 20.105 19.105 21 18 21zM9 9h2v8H9V9zM13 9h2v8h-2V9zM16 5V4c0-1.105-0.895-2-2-2h-4C8.895 2 8 2.895 8 4v1H3v2h18V5H16zM10 4h4v1h-4V4z"/></g></svg>

<svg xmlns="http://www.w3.org/2000/svg" viewBox="0 0 24 24"><rect x="0" fill="none" width="24" height="24"/><g><path d="M18,21H6a2,2,0,0,1-2-2V9H6V19H18V9h2V19A2,2,0,0,1,18,21Z"/><rect x="9" y="9" width="2" height="8"/><rect x="13" y="9" width="2" height="8"/><path d="M16,5V4a2,2,0,0,0-2-2H10A2,2,0,0,0,8,4V5H3V7H21V5ZM10,4h4V5H10Z"/></g></svg>
